X:44
T:McKennas (2)
R:Jig
S:Kevin Burke, London and Jackie Daly, Cork (fiddle and box)
D:From RTE 'The Pure Drop'
M:6/8
Z:Bernie Stocks
K:A
|: cBA eAA | fAA eAA | cBA eAA | fed cBA | cBA eAA | fAA eAA | Ace faf | ecA A2B :|
|: cee e2c | efe cBA | dff f2e | dff f2d | cee efe | cea ecA | dcd faf | ecA A2B :|
<end>
<start>
